src/24/panel/lyricfier-tray.svg

<svg xmlns="http://www.w3.org/2000/svg" width="24" height="24" version="1.1">
 <defs>
  <style id="current-color-scheme" type="text/css">
   .ColorScheme-Text { color:#dfdfdf; } .ColorScheme-Highlight { color:#4285f4; }
  </style>
 </defs>
 <path style="fill:currentColor" class="ColorScheme-Text" d="M 4.800781,4 C 4.357581,4 4,4.3575812 4,4.8007812 V 19.199219 C 4,19.642419 4.357581,20 4.800781,20 H 19.199219 C 19.642419,20 20,19.642419 20,19.199219 V 4.8007812 C 20,4.3575812 19.642419,4 19.199219,4 Z M 11.5,6 C 11.777,6 12,6.3345 12,6.75 v 10.5 C 12,17.6655 11.777,18 11.5,18 11.223,18 11,17.6655 11,17.25 V 6.75 C 11,6.3345 11.223,6 11.5,6 Z m -6,1 C 5.777,7 6,7.3705493 6,7.8320312 V 16.167969 C 6,16.629451 5.777,17 5.5,17 5.2229999,17 5,16.629451 5,16.167969 V 7.8320312 C 5,7.3705492 5.2229999,7 5.5,7 Z m 9,0 C 14.777,7 15,7.3192877 15,7.7148438 V 16.285156 C 15,16.680712 14.777,17 14.5,17 14.223,17 14,16.680712 14,16.285156 V 7.7148438 C 14,7.3192877 14.223,7 14.5,7 Z M 8.5000001,8 c 0.2769999,0 0.5,0.3575812 0.5,0.8007812 v 6.3984378 c 0,0.4432 -0.2230001,0.800781 -0.5,0.800781 -0.277,0 -0.5,-0.357581 -0.5,-0.800781 V 8.8007812 c 0,-0.4432 0.223,-0.8007812 0.5,-0.8007812 z M 17.5,8 C 17.777,8 18,8.2984508 18,8.6679688 V 15.332031 C 18,15.701549 17.777,16 17.5,16 17.223,16 17,15.701549 17,15.332031 V 8.6679688 C 17,8.2984508 17.223,8 17.5,8 Z"/>
</svg>

<svg xmlns="http://www.w3.org/2000/svg" width="24" height="24"><defs><style id="current-color-scheme" type="text/css"></style></defs><path d="M4.8 4a.8.8 0 0 0-.8.8v14.4a.8.8 0 0 0 .8.8h14.4a.8.8 0 0 0 .8-.8V4.8a.8.8 0 0 0-.8-.8zm6.7 2c.277 0 .5.335.5.75v10.5c0 .416-.223.75-.5.75s-.5-.334-.5-.75V6.75c0-.415.223-.75.5-.75zm-6 1c.277 0 .5.37.5.832v8.336c0 .461-.223.832-.5.832s-.5-.37-.5-.832V7.832C5 7.371 5.223 7 5.5 7zm9 0c.277 0 .5.32.5.715v8.57c0 .396-.223.715-.5.715s-.5-.32-.5-.715v-8.57c0-.396.223-.715.5-.715zm-6 1c.277 0 .5.358.5.8v6.4c0 .442-.223.8-.5.8s-.5-.358-.5-.8V8.8c0-.442.223-.8.5-.8zm9 0c.277 0 .5.298.5.668v6.664c0 .37-.223.668-.5.668s-.5-.298-.5-.668V8.668c0-.37.223-.668.5-.668z" fill="currentColor" color="#bebebe"/></svg>
